svgs/sharp-regular/bridge-circle-xmark.svg

<svg xmlns="http://www.w3.org/2000/svg" viewBox="0 0 640 512"><!--! Font Awesome Pro 6.6.0 by @fontawesome - https://fontawesome.com License - https://fontawesome.com/license (Commercial License) Copyright 2024 Fonticons, Inc. --><path d="M56 32L32 32l0 48 24 0 48 0 0 64-48 0-24 0 0 48 24 0 48 0 48 0 80 0 48 0 216 0 88 0 24 0 0-48-24 0-48 0 0-64 40 0 24 0 0-48-24 0L56 32zM338 290.3c7.4-15 16.9-28.9 28.1-41.1c-14.2-5.9-29.8-9.2-46.1-9.2c-66.3 0-120 53.7-120 120l0 72-48 0 0-96c0-53-43-96-96-96l-24 0 0 48 24 0c26.5 0 48 21.5 48 48l0 120 0 24 24 0 96 0 24 0 0-24 0-96c0-39.8 32.2-72 72-72c6.2 0 12.3 .8 18 2.3zM488 80l0 64-80 0 0-64 80 0zM360 80l0 64-80 0 0-64 80 0zM232 80l0 64-80 0 0-64 80 0zM496 512a144 144 0 1 0 0-288 144 144 0 1 0 0 288zm59.3-180.7L518.6 368l36.7 36.7L566.6 416 544 438.6l-11.3-11.3L496 390.6l-36.7 36.7L448 438.6 425.4 416l11.3-11.3L473.4 368l-36.7-36.7L425.4 320 448 297.4l11.3 11.3L496 345.4l36.7-36.7L544 297.4 566.6 320l-11.3 11.3z"/></svg>

<svg xmlns="http://www.w3.org/2000/svg" viewBox="0 0 640 512"><!--! Font Awesome Pro 6.4.0 by @fontawesome - https://fontawesome.com License - https://fontawesome.com/license (Commercial License) Copyright 2023 Fonticons, Inc. --><path d="M56 32H32V80H56h48v64H56 32v48H56h48 48 80 48H496h88 24V144H584 536V80h40 24V32H576 56zM338 290.3c7.4-15 16.9-28.9 28.1-41.1c-14.2-5.9-29.8-9.2-46.1-9.2c-66.3 0-120 53.7-120 120v72H152V336c0-53-43-96-96-96H32v48H56c26.5 0 48 21.5 48 48V456v24h24 96 24V456 360c0-39.8 32.2-72 72-72c6.2 0 12.3 .8 18 2.3zM488 80v64H408V80h80zM360 80v64H280V80h80zM232 80v64H152V80h80zM496 512a144 144 0 1 0 0-288 144 144 0 1 0 0 288zm59.3-180.7L518.6 368l36.7 36.7L566.6 416 544 438.6l-11.3-11.3L496 390.6l-36.7 36.7L448 438.6 425.4 416l11.3-11.3L473.4 368l-36.7-36.7L425.4 320 448 297.4l11.3 11.3L496 345.4l36.7-36.7L544 297.4 566.6 320l-11.3 11.3z"/></svg>
